/**
 * JSFX Name: Test
 * Description: Does it work.
 * Author: beaunus
 * Licence: GPL v3
 * REAPER: 5.0
 * Extensions: None
 * Version: 1.0
 */

/**
 * Changelog:
 * v1.0 (2017-01-01)
  + Initial Release
 */

desc:Test

slider1:0<0,16,1{Any,1,2,3,4,5,6,7,8,9,10,11,12,13,14,15,16}>Input Channel

////////////////////////////////////////////////////////////////////////////////
@init

////////////////////////////////////////////////////////////////////////////////
@slider

////////////////////////////////////////////////////////////////////////////////
@block
